packages/webapp/public/images/template-logos/stackexchange.svg

<svg width="62" height="62" viewBox="0 0 62 62" fill="none" xmlns="http://www.w3.org/2000/svg">
<path d="M13 35.5156H48.4737V28.2198H13V35.5156Z" fill="#4068BB"/>
<path d="M13 26.1182H48.4737V18.8205H13V26.118V26.1182Z" fill="#5CA3DE"/>
<path d="M42.8442 8.99991H18.6236C15.5171 8.99991 13 11.6112 13 14.8287V16.7236H48.4735V14.8287C48.4735 11.6112 45.9532 8.99991 42.8442 8.99991Z" fill="#9ADFF7"/>
<path d="M13 37.5712V39.4657C13 42.6832 15.5171 45.2949 18.6236 45.2949H33.7735V53L41.2089 45.2949H42.8442C45.9532 45.2949 48.4735 42.6832 48.4735 39.4658V37.5719H13" fill="#2D4E9B"/>
<path d="M19.6547 45.2954H18.6236C15.5171 45.2954 13 42.6837 13 39.4663V37.5723H27.1073L19.6547 45.2959" fill="#455CA6"/>
<path d="M38.1574 26.1182H13V18.8205H45.1979L38.1574 26.118" fill="#73AEE2"/>
<path d="M29.0907 35.5156H13V28.2198H36.1312L29.0907 35.5156Z" fill="#5877C4"/>
</svg>

<svg xmlns="http://www.w3.org/2000/svg" width="62" height="62" fill="none"><path d="M13 35.516h35.474V28.22H13v7.296z" fill="#4068bb"/><path d="M13 26.118h35.474v-7.298H13v7.297h0z" fill="#5ca3de"/><path d="M42.844 9H18.624C15.517 9 13 11.611 13 14.829v1.895h35.474v-1.895c0-3.217-2.52-5.829-5.629-5.829z" fill="#9adff7"/><path d="M13 37.571v1.895c0 3.218 2.517 5.829 5.624 5.829h15.15V53l7.435-7.705h1.635c3.109 0 5.629-2.612 5.629-5.829v-1.894H13" fill="#2d4e9b"/><path d="M19.655 45.295h-1.031c-3.107 0-5.624-2.612-5.624-5.829v-1.894h14.107l-7.453 7.724" fill="#455ca6"/><path d="M38.157 26.118H13v-7.298h32.198l-7.04 7.297" fill="#73aee2"/><path d="M29.091 35.516H13V28.22h23.131l-7.041 7.296z" fill="#5877c4"/></svg>
